X:1
T:Just A Closer Walk With Thee
M:4/4
L:1/8
K:C
 G3 ^G A/2 E3/2 =G^F| =F8| d3 d B/2 G3/2 AB| A/2- G3/2- G6| e3 g e/2 c3/2 dc|\
 c6 cA| G3 G G2 G/2 G3/2| G8|
